Adwaita++/emblems/16/emblem-synchronizing.svg

<svg fill="none" height="16" viewBox="0 0 16 16" width="16" xmlns="http://www.w3.org/2000/svg">
  <path d="m13.6 1h-11.2c-.7732 0-1.4.6268-1.4 1.4v11.2c0 .7732.6268 1.4 1.4 1.4h11.2c.7732 0 1.4-.6268 1.4-1.4v-11.2c0-.7732-.6268-1.4-1.4-1.4z" fill="#9a9996"/>
  <path clip-rule="evenodd" d="m9.26436 4.85419-1.00583-.54864c-.15069-.08219-.20621-.27097-.12402-.42166l.29764-.54567c.08219-.15069.27097-.20621.42166-.12402l3.64599 1.98873c.216.11779.216.42788 0 .54567l-3.64599 1.98872c-.15069.0822-.33947.02667-.42166-.12401l-.29764-.54567c-.08219-.15069-.02667-.33947.12402-.42166l1.00584-.54865h-4.39966c-.34328 0-.62157.27829-.62157.62157v1.24314.62157.31079c0 .17164-.13915.31078-.31079.31078h-.62157c-.17164 0-.31078-.13914-.31078-.31078v-2.79707c0-.68657.55657-1.24314 1.24314-1.24314zm-2.52873 6.29161 1.00586.5486c.15069.0822.20622.271.12402.4217l-.29764.5457c-.08219.1507-.27097.2062-.42165.124l-3.646-1.9887c-.21596-.1179-.21596-.4279 0-.5457l3.646-1.98875c.15068-.08219.33946-.02666.42165.12402l.29764.54567c.08219.15069.02667.33947-.12402.42165l-1.00586.54865h4.39967c.3433 0 .6216-.27827.6216-.62156v-1.24314-.62157-.31079c0-.17164.1391-.31078.3107-.31078h.6216c.1717 0 .3108.13914.3108.31078v2.79706c0 .68656-.5566 1.24316-1.2431 1.24316z" fill="#f6f5f4" fill-rule="evenodd"/>
</svg>

<svg xmlns="http://www.w3.org/2000/svg" fill="none" width="16" height="16" viewBox="0 0 16 16">
 <path fill="url(#paint0_linear)" d="M13.6 1H2.4C1.6268 1 1 1.6268 1 2.4V13.6C1 14.3732 1.6268 15 2.4 15H13.6C14.3732 15 15 14.3732 15 13.6V2.4C15 1.6268 14.3732 1 13.6 1Z"/>
 <path fill="url(#paint1_linear)" fill-rule="evenodd" d="M9.26436 4.85419L8.25853 4.30555C8.10784 4.22336 8.05232 4.03458 8.13451 3.88389L8.43215 3.33822C8.51434 3.18753 8.70312 3.13201 8.85381 3.2142L12.4998 5.20293C12.7158 5.32072 12.7158 5.63081 12.4998 5.7486L8.85381 7.73732C8.70312 7.81952 8.51434 7.76399 8.43215 7.61331L8.13451 7.06764C8.05232 6.91695 8.10784 6.72817 8.25853 6.64598L9.26437 6.09733H4.86471C4.52143 6.09733 4.24314 6.37562 4.24314 6.7189V7.96204V8.58361V8.8944C4.24314 9.06604 4.10399 9.20518 3.93235 9.20518H3.31078C3.13914 9.20518 3 9.06604 3 8.8944V6.09733C3 5.41076 3.55657 4.85419 4.24314 4.85419H9.26436ZM6.73563 11.1458L7.74149 11.6944C7.89218 11.7766 7.94771 11.9654 7.86551 12.1161L7.56787 12.6618C7.48568 12.8125 7.2969 12.868 7.14622 12.7858L3.50022 10.7971C3.28426 10.6792 3.28426 10.3692 3.50022 10.2514L7.14622 8.26265C7.2969 8.18046 7.48568 8.23599 7.56787 8.38667L7.86551 8.93234C7.9477 9.08303 7.89218 9.27181 7.74149 9.35399L6.73563 9.90264H11.1353C11.4786 9.90264 11.7569 9.62437 11.7569 9.28108V8.03794V7.41637V7.10558C11.7569 6.93394 11.896 6.7948 12.0676 6.7948H12.6892C12.8609 6.7948 13 6.93394 13 7.10558V9.90264C13 10.5892 12.4434 11.1458 11.7569 11.1458H6.73563Z" clip-rule="evenodd"/>
 <defs>
  <linearGradient id="paint0_linear" x1="1" x2="15" y1="8" y2="8" gradientUnits="userSpaceOnUse">
   <stop stop-color="#9A9996"/>
  </linearGradient>
  <linearGradient id="paint1_linear" x1="3" x2="13" y1="8" y2="8" gradientUnits="userSpaceOnUse">
   <stop stop-color="#F6F5F4"/>
  </linearGradient>
 </defs>
</svg>
